X:10072
T:Maggie Lawder. HSJJ.186
M:4/4
L:1/8
Q:120
S:HSJ Jackson,Wyresdale,Lancs.1823
R:Air
O:England
A:Lancashire
N:Whew!.
H:1823
Z:Chris Partington
K:D
.de.df .de.df|eF g/f/e/d/ c2{d}e2|dedf dedf|ab a/b/a/g/~f2a2|!
g/f/g/a/ g/b/a/g/ f/e/f/g/ f/a/g/f/|e/d/e/f/ g/f/e/d/c2{d}e2|a/g/~f2a2|!
g/f/g/a/ g/b/a/g/ f/e/f/g/ f/a/g/f/|e/d/e/f/ g/f/e/d/c2{d}e2|